X:1     %Music
T:The Shoemakker
B:Bruce and Stokoe,  Northumbrian Minstrelsy, Newcastle-Upon Tyne, 188(reissued Llanerch)
M:2/4     %Meter
L:1/16     %
K:Bb
F2 |F2 B2 c2 e2 |d2 B2 c2 F2 |F2 B2 c2 d2 | B3 c  B2 F
w:My moth-er sent me to the school, To learn to be a stock-ing knit-ter,
 F |F2 B2 c2 e2 |d2 A2 c2 (de) |f3 d e3 c | B4 A2 F2 |
w: But I went wrang and play'd the fule And_ mar-ried with a shoe-mak-ker. 
A4 A2 (GF) |G2 G2 G2 FG |A2 A2 A2 G2 | B2 c2 B2 G
